X: 09017
T: CHARLIE PILZER'S
C: Bob McQuillen 23 Oct 92
B: Bob's Note Book 9 #17
%R: reel
Z: 2019 John Chambers <jc:trillian.mit.edu>
M: C
L: 1/8
K: D
Bc \
| dBce dBGE | DB,DG B2cB | AGAB cedc | BdBG D2Bc |
| dBce dBGE | DB,DG BdcB | AGBd cAFG | A2G2 G2 :|
|: FG \
| AdBd AGFA | dAde f2ef | g2e2 efed | cedB AGFG |
| AdBd AGFA | dAde f2ed | efec Aceg | f2d2 d2 :|
%%begintext align
%% Charlie Pilzer is one of the
%% east coast's great musicians (bass and button box) and
%% every once in a while it's been my great good fortune
%% to play a few tunes with him. He and lovely wife
%% Cecily and their cute daughter live in Tacoma Park, MD,
%% where they operate a B+B for grateful itinerant musicians.
%% =Thanks=, you guys!
%%endtext

%%sep 1 1 500

%%sep 1 1 500

